X:2065
T:la Grande Chaine
M:4/4
O:Canada
R:Reel
Z:Richard Robinson 
%%TUNEURL: http://www.leeds.ac.uk/music/Info/RRTuneBk/gettune/0000085c.html
%%ID:0000085c
K:G
BGAG E2D2 | BGAB cedc | BGAG E2D2 | BGAF G4::\
g2fg edBd | gedc BGGd | ! g2fg edBd | eaag fdef |\
g2fg edBd | gedc BGG2 | EFGA BcAF | G6:|
